src/img/i-feedback16.svg

<svg xmlns="http://www.w3.org/2000/svg" xmlns:xlink="http://www.w3.org/1999/xlink" width="16" height="16" viewBox="0 0 16 16">
  <defs>
    <path id="i-feedback16-a" d="M13.577,1 L2.423,1 C1.08549932,1.00165294 0.00165293785,2.08549932 0,3.423 L0,9.577 C0.00165293785,10.9145007 1.08549932,11.9983471 2.423,12 L8.26,12 L11.226,15.633 C11.4936161,15.9601314 11.9379992,16.0836914 12.3360673,15.9416524 C12.7341355,15.7996134 12.9999216,15.4226503 13,15 L13,12 L13.577,12 C14.9145007,11.9983471 15.9983471,10.9145007 16,9.577 L16,3.423 C15.9983471,2.08549932 14.9145007,1.00165294 13.577,1 Z M14,9.577 C14,9.68918658 13.9554341,9.79677828 13.8761062,9.87610617 C13.7967783,9.95543406 13.6891866,10 13.577,10 L12,10 C11.4477153,10 11,10.4477153 11,11 L11,12.194 L9.509,10.367 C9.31888626,10.1344928 9.03433773,9.99974534 8.734,10 L2.423,10 C2.31081342,10 2.20322172,9.95543406 2.12389383,9.87610617 C2.04456594,9.79677828 2,9.68918658 2,9.577 L2,3.423 C2,3.18938355 2.18938355,3 2.423,3 L13.577,3 C13.8106164,3 14,3.18938355 14,3.423 L14,9.577 Z M11.5,5 L4.5,5 C4.22385763,5 4,5.22385763 4,5.5 C4,5.77614237 4.22385763,6 4.5,6 L11.5,6 C11.7761424,6 12,5.77614237 12,5.5 C12,5.22385763 11.7761424,5 11.5,5 Z M11.5,7 L4.5,7 C4.22385763,7 4,7.22385763 4,7.5 C4,7.77614237 4.22385763,8 4.5,8 L11.5,8 C11.7761424,8 12,7.77614237 12,7.5 C12,7.22385763 11.7761424,7 11.5,7 Z"/>
  </defs>
  <g fill="none" fill-rule="evenodd">
    <rect width="16" height="16"/>
    <mask id="i-feedback16-b" fill="#fff">
      <use xlink:href="#i-feedback16-a"/>
    </mask>
    <g fill="#0C0C0D" fill-opacity=".8" mask="url(#i-feedback16-b)">
      <rect width="16" height="16"/>
    </g>
  </g>
</svg>

<svg xmlns="http://www.w3.org/2000/svg" xmlns:xlink="http://www.w3.org/1999/xlink" width="16" height="16"><defs><path id="a" d="M13.577 1H2.423A2.426 2.426 0 000 3.423v6.154A2.426 2.426 0 002.423 12H8.26l2.966 3.633A1 1 0 0013 15v-3h.577A2.426 2.426 0 0016 9.577V3.423A2.426 2.426 0 0013.577 1zM14 9.577a.423.423 0 01-.423.423H12a1 1 0 00-1 1v1.194l-1.491-1.827A1 1 0 008.734 10H2.423A.423.423 0 012 9.577V3.423C2 3.189 2.19 3 2.423 3h11.154c.234 0 .423.19.423.423v6.154zM11.5 5h-7a.5.5 0 000 1h7a.5.5 0 100-1zm0 2h-7a.5.5 0 000 1h7a.5.5 0 100-1z"/></defs><g fill="none" fill-rule="evenodd"><path d="M0 0h16v16H0z"/><mask id="b" fill="#fff"><use xlink:href="#a"/></mask><g fill="#0C0C0D" fill-opacity=".8" mask="url(#b)"><path d="M0 0h16v16H0z"/></g></g></svg>
